X:1
T: Lady Helonora Hume
C:
R:Reel
Q: 232
K:D
M:4/4
L:1/8
|:Dd dc cB BA|af df ed ef|Dd dc cB BA|AF EF D2 D2:|
|:A,D A,D B,D B,D|A,D GA B1/2A1/2G1/2F1/2 EF|A,D A,D B,D GB|AF EF D2 D2:|
|:ab af df df|g1/2b1/2g f1/2a1/2f ed ef|ab af de fd|Bg fe d2 d2:|
|:BA AG GF FE|D1/2E1/2F1/2G1/2 AF ED EF|BA AG GF ED|B,B AF D2 D2:|
